X: 129
T:Pasucais
M:6/8
L:1/8
S:Llan de Cubel
Z:Rachel Marsh
K:G
GBd | gfe dBc | cdd ded | BAG GBd | gfe dBc | d2 d ded | BAG Bcd | A2 A
FAd |
c2 B BcB | AFG GAA |  A2 G Bcd | AFA FAd | c2 B BcB | AFG GAA | A2 G||
<end>
<start>
